X:1
T:Polska från Östra Ryd
T:Traditionell
R:Slängpolska
S:Johan Hedin
O:Östra Ryd?
N:Transkiberat från Johan Hedin och Gunnars Idenstams skiva
N:Låtar - Swedish Folk Tunes 
N:Samma som denna: http://www.folkwiki.se/Musik/1301
M:3/4
L:1/16
K:Am
e2(ea) e2(ef) e2d2 | c3B A2AB cBcd | e2(e^f) g2(ga) g2^f2 | e3d ede^f e4 :|
e2(fg) a3g f2e2 | d2(ef) g3f e2d2 | c2(de) f3e d2c2 | B3A ^GABA ^G2E2 |
A2(AB) c2B2 c2B2 | ABcd edef e2c2 | e2(ae) d3c B2A2 | cBA^G A8 |]

